icons/line/folder-download.svg

<svg width="24" height="24" viewBox="0 0 24 24" fill="none" xmlns="http://www.w3.org/2000/svg">
<path fill-rule="evenodd" clip-rule="evenodd" d="M4 6C4 5.44772 4.44772 5 5 5H8.92963C9.26399 5 9.57622 5.1671 9.76168 5.4453L10.5742 6.6641C11.1306 7.4987 12.0673 8 13.0704 8H19C19.5523 8 20 8.44772 20 9V18C20 18.5523 19.5523 19 19 19H5C4.44772 19 4 18.5523 4 18V6ZM5 3C3.34315 3 2 4.34315 2 6V18C2 19.6569 3.34315 21 5 21H19C20.6569 21 22 19.6569 22 18V9C22 7.34315 20.6569 6 19 6H13.0704C12.736 6 12.4238 5.8329 12.2383 5.5547L11.4258 4.3359C10.8694 3.5013 9.93269 3 8.92963 3H5ZM13 11C13 10.4477 12.5523 10 12 10C11.4477 10 11 10.4477 11 11V14.5858L9.70711 13.2929C9.31658 12.9024 8.68342 12.9024 8.29289 13.2929C7.90237 13.6834 7.90237 14.3166 8.29289 14.7071L11.2929 17.7071C11.6834 18.0976 12.3166 18.0976 12.7071 17.7071L15.7071 14.7071C16.0976 14.3166 16.0976 13.6834 15.7071 13.2929C15.3166 12.9024 14.6834 12.9024 14.2929 13.2929L13 14.5858V11Z" fill="currentColor"/>
</svg>

<svg width="24" height="24" fill="none" xmlns="http://www.w3.org/2000/svg"><path fill-rule="evenodd" clip-rule="evenodd" d="M4 6a1 1 0 011-1h3.93a1 1 0 01.832.445l.812 1.22A3 3 0 0013.07 8H19a1 1 0 011 1v9a1 1 0 01-1 1H5a1 1 0 01-1-1V6zm1-3a3 3 0 00-3 3v12a3 3 0 003 3h14a3 3 0 003-3V9a3 3 0 00-3-3h-5.93a1 1 0 01-.832-.445l-.812-1.22A3 3 0 008.93 3H5zm8 8a1 1 0 10-2 0v3.586l-1.293-1.293a1 1 0 00-1.414 1.414l3 3a1 1 0 001.414 0l3-3a1 1 0 00-1.414-1.414L13 14.586V11z" fill="currentColor"/></svg>
